svgs/splitwise.svg

<svg xmlns="http://www.w3.org/2000/svg" viewBox="0 0 192 192"><path d="m96 16.5 74.204 42.779v116.159H21.796V59.343Z" fill="none" stroke="#000" stroke-width="8" stroke-linecap="round" stroke-linejoin="round"/><path d="M23.147 167.978a19.069 19.069 0 0 0 7.404 5.865 19.103 19.103 0 0 0 9.315 1.595H49.96a17.048 17.048 0 0 0 8.512-2.287 17.011 17.011 0 0 0 6.226-6.23 16.977 16.977 0 0 0 2.272-8.505 16.995 16.995 0 0 0-4.974-12.028 17.048 17.048 0 0 0-12.036-4.993H38.806a17.041 17.041 0 0 1-8.511-2.287 17.007 17.007 0 0 1-8.499-14.735 16.985 16.985 0 0 1 2.273-8.504 17.022 17.022 0 0 1 14.737-8.518h10.095a19.092 19.092 0 0 1 16.719 7.46m104.584-55.532L65.62 114.811M21.796 59.343l148.408 78.803" fill="none" stroke="#000" stroke-width="8" stroke-linecap="round" stroke-linejoin="round"/></svg>

<svg
    xmlns="http://www.w3.org/2000/svg"
    viewBox="0 0 192 192"
    id="vector">
    <path
        id="path"
        d="M 96 16.5 L 170.204 59.279 L 170.204 175.438 L 21.796 175.438 L 21.796 59.343 Z"
        fill="none"
        stroke="#000000"
        stroke-width="8"
        stroke-linecap="round"
        stroke-linejoin="round"/>
    <path
        id="path_1"
        d="M 23.147 167.978 C 25.083 170.522 27.629 172.539 30.551 173.843 C 33.472 175.146 36.676 175.695 39.866 175.438 L 49.96 175.438 C 52.949 175.435 55.885 174.646 58.472 173.151 C 61.059 171.656 63.207 169.507 64.698 166.921 C 66.19 164.334 66.974 161.401 66.97 158.416 C 66.975 153.909 65.185 149.579 61.996 146.388 C 58.807 143.197 54.475 141.4 49.96 141.395 L 38.806 141.395 C 35.817 141.392 32.881 140.603 30.295 139.108 C 27.708 137.613 25.56 135.464 24.069 132.877 C 22.577 130.291 21.793 127.358 21.796 124.373 C 21.793 121.389 22.577 118.455 24.069 115.869 C 25.56 113.283 27.708 111.134 30.295 109.638 C 32.881 108.143 35.817 107.354 38.806 107.351 L 48.901 107.351 C 52.091 107.094 55.295 107.643 58.216 108.947 C 61.137 110.25 63.684 112.267 65.62 114.811 M 170.204 59.279 L 65.62 114.811 M 21.796 59.343 L 170.204 138.146"
        fill="none"
        stroke="#000000"
        stroke-width="8"
        stroke-linecap="round"
        stroke-linejoin="round"/>
</svg>
